X:1
T:All This Night Bright Angels Sing
T:All This Night Bright Angels Sing
T:Arthur Seymour Sullivan (1842–1900)
T:William Austin (?–1633)
T:Public Domain Courtesy of the Cyber Hymnal™
T:Public Domain Courtesy of the Cyber Hymnal™
C:Arthur Seymour Sullivan (1842–1900)
Z:Public Domain
Z:Courtesy of the Cyber Hymnal™
%%score ( 1 2 ) ( 3 4 )
L:1/8
Q:1/4=113
M:4/4
K:F
V:1 treble 
V:2 treble 
V:3 bass 
V:4 bass 
V:1
|: F2 [FG]2 [FA]2 [GB]2 | [Ac]3 [Bd] [Ac]4 | F2 [FG]2 [FA]2 [FB]2 | [Ec]3 [Ed] [Fc]4 | %4
w: 1.~All this night bright|an- gels sing,|Ne- ver was such|car- ol- ing,|
w: 2.~Wake, O earth, wake|ev- ’ry thing,|Wake and hear the|joy I bring:|
 [Ac]3 [Ac] [Ac]2 [FB]2 | [^FA]3 [FA] [FA]4 | G2 [FG]2 c2 [ce]2 | [cg]4 [A=B]4 | [Gc]8 | %9
w: Hark! a voice which|loud- ly cries,|“Mor- tals, mor- tals,|wake and|rise.”|
w: Wake and joy; for|all this night,|Heav’n and ev- ’ry|twink- ling|light,|
 [EG]2 F2 [EB]4 | [EG]4 [EG]2 F2 | [EB]4 [EG]4 | F2 [FG]2 [FA]2 [GB]2 | [Ac]3 [Ad] [Ac]4 | %14
w: Lo! to glad-|ness turns your|sad- ness:|From the earth is|ris’n a Son,|
w: All a- maz-|ing, still stand|gaz- ing,|An- gels, pow’rs and|all that be,|
 [FB]2 [^FA]2 G2 [D=F]2 | (F4 G2) [CE]2 | [CF]8"^Play 2 times" :| F2 [FG]2 [FA]2 [FB]2 | %18
w: Shines all night tho’|day * be|done.”|3.~Hail! O Son, O|
w: Wake, and joy this|Son * to|see.||
 c3 (z d) [Ac]4 | F2 [FG]2 [FA]2 [FB]2 | c3 (z d) [Ac]4 | [Ae]2 [^Gd]2 [Ac]2 [Ec]2 | %22
w: bless- * èd|* Light, Sent in-|to * this|* world by night;|
w: ||||
 [E=B]3 [EA] [D^G]4 | [CA]2 [DA]2 [G,G]2 [CE]2 | [CG]4 [=B,G]4 | [CG]8 | [EG]2 F2 [EB]4 | %27
w: Let Thy rays|and heav’n- ly pow’rs,|Shine in|these|dark souls of|
w: |||||
 [EG]4 [EG]2 F2 | [EB]4 [EG]4 | F2 [FG]2 [FA]2 [GB]2 | [Ac]3 [Ad] [Ac]4 | [Bd]2 [Gg]2 [Cf]2 F2 | %32
w: ours. For most|du- ly,|Thou art tru- ly|God and Man,|we do con- fess:|
w: |||||
 [FA]4 [EG]4 | !fermata!F8 |] %34
w: Hail, O|Sun|
w: ||
V:2
|: F2 x6 | x8 | F2 x6 | x8 | x8 | x8 | G2 (EG) x4 | x8 | x8 | x2 F2 x4 | x6 F2 | x8 | F2 x6 | x8 | %14
 x4 G2 x2 | C6 x2 | x8 :| F2 x6 | G2 B2 x5 | F2 x6 | G2 B2 x5 | x8 | x8 | x8 | x8 | x8 | x2 F2 x4 | %27
 x6 F2 | x8 | F2 x6 | x8 | x6 F2 | x8 | F8 |] %34
V:3
|: [F,A,]2 [F,B,]2 [F,C]2 [F,C]2 | [F,C]3 [F,C] [F,C]4 | [F,A,]2 [F,B,]2 [F,C]2 [D,F,]2 | %3
 [C,G,]3 [C,G,] [F,A,]4 | [F,_E]3 [F,E] [F,E]2 [B,D]2 | [D,C]3 [D,C] [D,C]4 | %6
 [G,=B,]2 [G,B,]2 [G,C]2 [G,C]2 | (D2 E2) [G,F]4 | [C,E]8 | [B,C]2 [A,C]2 [G,C]4 | %10
 [C,C]4 [B,C]2 [A,C]2 | [G,C]4 [C,C]4 | [F,A,]2 [F,B,]2 [F,C]2 [F,D]2 | [F,_E]3 [F,E] [F,E]4 | %14
 [B,,D]2 [D,C]2 [G,,B,]2 A,2 | (G,2 A,2) [C,B,]4 | [F,A,]8"^Play 2 times" :| %17
 [F,A,]2 [F,B,]2 [F,C]2 [F,D]2 | E2 z F, [F,F]4 x | [F,A,]2 [F,B,]2 [F,C]2 [F,D]2 | %20
 E2 z [F,F]4 x2 | [E,C]2 [E,=B,]2 [E,A,]2 [E,E]2 | [E,D]3 [E,C] [E,=B,]4 | %23
 [F,A,]2 [F,=B,]2 [E,C]2 (G,E,) | (D,2 E,2) [G,,F,]4 | [C,E,]8 | [B,_C]2 [A,C]2 [G,C]4 | %27
 [C,C]4 [B,C]2 [A,C]2 | [G,C]4 [C,C]4 | [F,A,]2 [F,B,]2 [F,C]2 [F,D]2 | [F,_E]3 [F,E] [F,E]4 | %31
 [B,D]2 [B,E]2 [A,F]2 [B,D]2 | C4 [C,B,]4 | !fermata![F,A,]8 |] %34
V:4
|: x8 | x8 | x8 | x8 | x8 | x8 | x8 | G,4 x4 | x8 | x8 | x8 | x8 | x8 | x8 | x6 (A,,B,,) | C,4 x4 | %16
 x8 :| x8 | F,3 C2 x4 | x8 | F,3 (C2 F,) x3 | x8 | x8 | x6 C,2 | G,,4 x4 | x8 | x8 | x8 | x8 | x8 | %30
 x8 | x8 | C4 x4 | x8 |] %34

